X:36
T:Ballydesmond Polkas - No. 2
R:polka
Z:Jaya R. Carl, August 27, 2006
M:2/4
L:1/8
K:Ador
|:"C"c2 "G"B2 | "D"A2 "G"G>(A | B)d ed | "Em"g2 g>(f |
"Am"ea) ("G"3g/2a/2g/2e) | ("G"dB) "Em"G(A/2B/2 |\
 "Am"c)(e "G"d)(B |[1 "Am"A2) (AB):|[2 "Am"A2) A2||
|:("Am"ea) (ag/2e/2) | ("G"dg) (gd) | ("Am"ea) (ab) | "Em"g2 g>(f |
"Am"ea) ("G"3g/2a/2g/2e) | ("G"dB) "Em"G(A/2B/2 | "Am"c) (e "G"d)(B | "Am"A2) A2:|
